X: 148
T: Da zao
%%abc-version 2.0
%%abcx-abcm2ps-target-version 5.9.1 (29 Sep 2008)
%%abc-creator hum2abc beta
%%abcx-conversion-date 2013/10/02 07:52:29
%%abc-edited-by Helmut Schaffrath
%%humdrum-veritas 2987370903
%%humdrum-veritas-data 91803328
%%continueall 1
%%barnumbers 0
L: 1/8
M: 2/4
K: Eb
c2c B [I:setbarnb 1]| 
c d c c | 
B GB2- | 
B2G B | 
c2c d | 
c B A G | 
F EF2- | 
F2c2 | 
c B c d | 
c c B G | 
B4 | 
G Bc2 | 
c d c B | 
A G F E | 
F4 | 
G FE2 | 
F4 | 
B3e | 
c B G F | 
E4 | 
c3e | 
f3g | 
e f d c | 
B3e | 
c B A G | 
B3c | 
B4 |]  



